X:1
T:Wanderers Nachtlied II
T:Wandrers Nachtlied II D 768 (1822)
T:Franz Peter Schubert (1797-1828)
T:Johann Wolfgang von Goethe (1749-1832)
C:Franz Schubert (1777-1828)
Z:Johann Wolfgang von Goethe (1749-1832)
%%score 1 { ( 2 6 ) | ( 3 4 5 ) }
L:1/8
Q:1/4=30
M:4/4
K:Bb
V:1 treble nm="Voice"
V:2 treble nm="Piano"
V:6 treble 
V:3 bass 
V:4 bass 
V:5 bass 
V:1
"^Langsam" z8 | z8 | B>B BB c2 BA | B3 B e3 d | (d>c) B2 c>c c2 | _d3 c/B/ F2 z F | %6
w: ||Ü- ber al- len Gip- feln ist|Ruh, in al- len|Wip- * feln spü- rest du|kaum ei- nen Hauch; die|
 c3 (B/A/) (c>B) F2 | (d/c/) c2 (B/A/) (c>B) F z | B>A G2 c>B A2 | (d>e) !fermata!f2 d2 cF | %10
w: Vög- * lein schwei- * gen,|schwei- * gen im * Wal- * de|War- te nur, war- te nur,|bal- * de ru- hest du|
 B2 z2 B>A G2 | c>B A2 (d>e) !fermata!f2 | d2 cF B4 | z8 |] %14
w: auch, war- te nur,|war- te nur, bal- * de|ru- hest du auch.||
V:2
!p!!<(! D2 DD!mp!!>(! E2!<)! D2!>)! |!p! (D2 x2) x4 | D2 DD E4 | D4!<(! (E2!<)!!mp!!>(! D2)!>)! | %4
!p! (D>C) x2 x4 | x8 | z/ [EF][EF][EF]([EF-]/ [=DF]/)[DF][DF][DF][DF]/ | %7
 [EF]/[EF][EF][EF]([EF-]/ [=DF]/)[DF][DF][DF][DF]/ | x4 F4 | x8 | x8 | !>!F4 x4 | x8 | x8 |] %14
V:3
 [F,B,]2 [F,B,][F,B,] G,2 F,2 | F,2 [=E,G,][_E,A,C] [D,B,]4 | [F,B,]2 [F,B,][F,B,] (A,2 B,C) | %3
 [F,B,]4 [E,B,]2 [F,B,]2 | ([_G,A,]2 [F,B,]2) z/ [B,C][B,C][B,C]([B,-C]/ | %5
 [B,_D]/)[B,D][B,D][B,D](([B,D]/ [A,C]/))[A,C][A,C][A,C][A,C]/ | (A,F,A,F, B,F,B,F,) | %7
 (A,F,A,F, B,F,B,F,) | (!>![G,B,]>[A,C] [B,D]2) [F,,F,]4 | %9
 (!fermata![B,D]>[F,C]!mf! !fermata![D,B,]2)!pp! F,2 ([=E,G,][_E,A,C]) | %10
 ([D,B,]>[F,C] !>![B,D]2) ([G,B,]>[A,C] [B,D]2) | %11
 [F,,F,]4 !fermata![B,D]>[F,C]!mf! !fermata![D,B,]2 |!p! (F,2 [=E,G,][_E,A,C] [D,B,]4) | %13
!pp! ([F,D]2 [=E,G,][_E,A,C] [D,B,]4) |] %14
V:4
 [B,,,D,]2 [B,,,D,][B,,,D,] [B,,,D,]4 | (F,,4 [B,,,B,,]4) | %2
 [B,,,B,,]2 [B,,,B,,][B,,,B,,] [B,,,B,,]4 | [B,,,B,,]4 (G,,2 F,,2) | (E,,2 D,,2) (E,,_G,,E,,G,,) | %5
 (=E,,=G,,E,,=E,) (F,,F,F,,F,) | x8 | x8 | [G,,D,]4 x4 | [B,,,B,,]4 [F,,,F,,]4 | %10
 [B,,,B,,]4 [G,,D,]4 | x4 [B,,,B,,]4 | (([F,,,F,,]4 [B,,,B,,]4)) | (([F,,,F,,]4 [B,,,B,,]4)) |] %14
V:5
 x4 B,4 | x8 | x4 F,4 | x8 | x8 | x8 | x8 | x8 | x8 | x8 | x8 | x8 | x8 | x8 |] %14
V:6
 x8 | x8 | x8 | x8 | x8 | x8 | x8 | x8 | x4 ([A,E]>[B,D]"_cresc." [F,C]2) | x8 | x8 | %11
 ([A,E]>[B,D]"_cresc." [F,C]2) x4 | x8 | x8 |] %14

